src/images/bridges/threshold.svg

<svg width="36" height="36" viewBox="0 0 36 36" fill="none" xmlns="http://www.w3.org/2000/svg">
<circle cx="18" cy="18" r="18" fill="black"/>
<path d="M31.998 11H22.666V14H31.998V11ZM16.4447 14H13.334V17H16.4447V14ZM13.334 29H16.4447V20H13.334V29ZM19.5553 14V17H22.666V14H19.5553ZM19.5553 29H22.666V20H19.5553V29ZM19.5553 11H16.4447V14H19.5553V11ZM4 11V14H13.334V11H4ZM32 20V17H22.666V20H32ZM16.4467 17V20H19.5553V17H16.4467ZM4.00204 17V20H13.3361V17H4.00204Z" fill="#FCF9FF"/>
</svg>

<svg xmlns="http://www.w3.org/2000/svg" width="36" height="36" fill="none"><circle cx="18" cy="18" r="18" fill="#000"/><path fill="#FCF9FF" d="M31.998 11h-9.332v3h9.332zm-15.553 3h-3.111v3h3.11zm-3.111 15h3.11v-9h-3.11zm6.221-15v3h3.111v-3zm0 15h3.111v-9h-3.11zm0-18h-3.11v3h3.11zM4 11v3h9.334v-3zm28 9v-3h-9.334v3zm-15.553-3v3h3.108v-3zM4.002 17v3h9.334v-3z"/></svg>
